!!!COM: Corelli, Arcangelo
!!!OTL: 
!!!ONM: Opus 3, No. 3
!!!OMV: 4
!!!CDT: 1653/2/17/-1713/1/8/
!!!OCY: Italia
**kern	**kern	**kern	**kern
*clefC	*clefC	*clefG	*clefG
*k[b-]	*k[b-]	*k[b-]	*k[b-]
*F:	*F:	*F:	*F:
*M6/4	*M6/4	*M6/4	*M6/4
=1	=1	=1	=1
2.B-	2.B-	1.r	4b-
.	.	.	8dd
.	.	.	8cc
.	.	.	4b-
2.A	2.A	.	4cc
.	.	.	4f
.	.	.	4ff
=2	=2	=2	=2
2G	2G	1.r	2b-
4A	4A	.	4ee-
4B-	4B-	.	4dd
2F	2F	.	2cc
=3	=3	=3	=3
2BB-	2BB-	2.r	4b-
.	.	.	8dd
.	.	.	8cc
4B-	4B-	.	4b-
4A	4A	4ff	4cc
[2F	[2F	8aa	8cc
.	.	8gg	8b-
.	.	4ff	4a
=4	=4	=4	=4
4F]	4F]	4gg	4b-
2E	2E	4cc	2g
.	.	4ccc	.
4D	4D	2ff	4a
4BB-	4BB-	.	4dd
4GG	4GG	4bb-	4ee
=5	=5	=5	=5
4FF	4FF	4aa	4ff
2C	2C	2gg	2ee
2FF	2.FF	4aa	4ff
.	.	8a	[2ff
.	.	8g	.
4F	.	4f	.
=6	=6	=6	=6
2G	2.r	4b-	4ff]
.	.	4g	2.ee-
4A	.	4cc	.
2BB-	4BB-	4f	.
.	8D	[2b-	4dd
.	8C	.	.
4BB-	4BB-	.	4gg
=7	=7	=7	=7
4C	4C	4b-]	4ee-
4FF	4FF	2.a	4cc
4F	4F	.	4ff
2BB-	2BB-	.	2dd
.	.	4dd	.
4E-	4E-	4g	4cc
=8	=8	=8	=8
4D	4D	4f	4b-
2C	2C	2e-	2a
2BB-	2BB-	2d	4b-
.	.	.	8dd
.	.	.	8cc
4B-	4B-	4r	4b-
=9	=9	=9	=9
2A	2A	4ff	4cc
.	.	8aa	2.ff
.	.	8gg	.
4A	4A	4ff	.
4G	4G	2.bb-	.
4c	4c	.	8gg
.	.	.	8ff
4C	4C	.	4ee
=10	=10	=10	=10
2F	2F	4aa	2.ff
.	.	2.ddd	.
4D	4D	.	.
2E-	2E-	.	4gg
.	.	[2ccc	8ee-
.	.	.	8ff
4C	4C	.	4gg
=11	=11	=11	=11
2D	2D	4ccc]	8ff
.	.	.	8ee-
.	.	2.bb-	8dd
.	.	.	8cc
4G	4G	.	4b-
2C	2C	.	8ee-
.	.	.	8dd
.	.	[2aa	8cc
.	.	.	8dd
4F	4F	.	4ee-
=12	=12	=12	=12
2BB-	2BB-	4aa]	2dd
.	.	2.gg	.
4E-	4E-	.	4ddd
2AA	2AA	.	8ccc
.	.	.	8bb-
.	.	2ff#	8aa
.	.	.	8bb-
4D	4D	.	4ccc
=13	=13	=13	=13
4GG	4GG	4gg	2bb-
4G	4G	2.ee-	.
4E-	4E-	.	4bb-
4F	4F	.	8aa
.	.	.	8gg
4F	4F	[2dd	8aa
.	.	.	8bb-
4D	4D	.	8aa
.	.	.	8bb-
=14	=14	=14	=14
4E-	4E-	4dd]	8gg
.	.	.	8ff#
4E-	4E-	4g	8gg
.	.	.	8aa
4C	4C	4cc	8gg
.	.	.	8aa
2D	2D	2cc	2ff#
[4C	[4C	[4b-	[4gg
=15	=15	=15	=15
4C]	4C]	4b-]	4gg]
2D	2D	2a	4.gg
.	.	.	8ff#
2.G	2.G	4g	2.gg
.	.	8b-	.
.	.	8a	.
.	.	4g	.
=16	=16	=16	=16
2.F	2.F	4a	2.r
.	.	4d	.
.	.	4dd	.
2.E-	2.E-	4g	4gg
.	.	[2gg	8bb-
.	.	.	8aa
.	.	.	4gg
=17	=17	=17	=17
2.D	2.D	4gg]	4aa
.	.	2.ff	4dd
.	.	.	4ddd
4E-	4E-	.	2gg
4G	4G	[2ee-	.
4A	4A	.	4ccc
=18	=18	=18	=18
2B-	4B-	4ee-]	4ff
.	8d	4dd	2.bb-
.	8c	.	.
4B-	4B-	4ff	.
4c	4c	2ee-	.
4F	4F	.	[2aa
4f	4f	4cc	.
=19	=19	=19	=19
2B-	2B-	2dd	4aa]
.	.	.	2.gg
4e-	4e-	4b-	.
2A	2A	2cc	.
.	.	.	[2ff
4d	4d	4a	.
=20	=20	=20	=20
2G	2G	2b-	4ff]
.	.	.	2.ee-
4c	4c	4g	.
2F	2F	2a	.
.	.	.	4dd
4B-	4B-	4dd	4ff
=21	=21	=21	=21
2E-	2E-	4b-	4g
.	.	4cc	4a
4BB-	4BB-	4dd	4b-
2.F	2.F	2cc	4r
.	.	.	4a
.	.	4ff	4cc
=22	=22	=22	=22
2.BB-	2.BB-	2dd	4r
.	.	.	4b-
.	.	4b-	4dd
2.F	2.F	2a	4r
.	.	.	4cc
.	.	4cc	4ee-
=23	=23	=23	=23
2.B-	2.B-	2dd	4r
.	.	.	4dd
.	.	4bb-	4ff
2.c	2.c	2gg	4r
.	.	.	4ee
.	.	4ccc	4gg
=24	=24	=24	=24
2.F	2.F	2aa	4r
.	.	.	4ff
.	.	4cc	4aa
2.BB-	2.BB-	2dd	4r
.	.	.	4gg
.	.	4b-	4bb-
=25	=25	=25	=25
2C	2C	2b-	2ee
2BB-	2BB-	2a	2ff
2C	2C	2g	4.ff
.	.	.	8ee
=26	=26	=26	=26
2.F	2.F	4f	2.ff
.	.	8a	.
.	.	8g	.
.	.	4f	.
2.E	2.E	4g	2.r
.	.	4c	.
.	.	4cc	.
=27	=27	=27	=27
2.D	2.D	4f	4f
.	.	2.ff	8a
.	.	.	8g
.	.	.	4f
2C	2C	.	4g
.	.	8gg	4c
.	.	8ff	.
4r	4r	4ee	4cc
=28	=28	=28	=28
4F	4F	2.aa	4f
8A	8A	.	2.ff
8G	8G	.	.
4F	4F	.	.
4G	4G	4bb-	.
4C	4C	[2gg	8gg
.	.	.	8ff
4c	4c	.	4ee
=29	=29	=29	=29
2F	2F	4gg]	2aa
.	.	2.ff	.
4F	4F	.	4a
2G	2G	.	4b-
.	.	[2ee-	4g
4E-	4E-	.	4cc
=30	=30	=30	=30
2F	2F	4ee-]	4a
.	.	2.dd	4f
4D	4D	.	4b-
4G	4G	.	2.ee-
4A	4A	[2cc	.
4F	4F	.	.
=31	=31	=31	=31
2B-	4B-	4cc]	2.dd
.	8d	2b-	.
.	8c	.	.
4B-	4B-	.	.
4c	4c	2.a	4ee-
4F	4F	.	[2cc
4f	4f	.	.
=32	=32	=32	=32
2B-	2B-	2.dd	4cc]
.	.	.	4f
4BB-	4BB-	.	2b-
2F	2F	2.cc	.
.	.	.	[2a
4F#	4F#	.	.
=33	=33	=33	=33
2G	2G	2b-	4a]
.	.	.	4d
4BB-	4BB-	4dd	2g
4C	4C	4ee-	.
2D	2D	2a	2f#
=34	=34	=34	=34
4GG	4GG	2.g	4g
4B-	4B-	.	2.gg
4G	4G	.	.
4d	4d	2.aa	.
4F	4F	.	[2ff
4D	4D	.	.
=35	=35	=35	=35
4E-	4E-	2.gg	4ff]
4G	4G	.	2.ee-
4A	4A	.	.
4B-	4B-	2.ff	.
4D	4D	.	[2dd
4BB-	4BB-	.	.
=36	=36	=36	=36
4GG	4GG	2.ee-	4dd]
4AA	4AA	.	2.cc
4FF	4FF	.	.
2BB-	2BB-	2dd	.
.	.	.	4f
4D	4D	4ff	[4b-
=37	=37	=37	=37
4E-	4E-	4gg	4b-]
4F	4F	2cc	2a
4FF	4FF	.	.
2BB-	2BB-	2b-	4b-
.	.	.	8dd
.	.	.	8cc
4B-	4B-	4r	4b-
=38	=38	=38	=38
4A	4A	4r	4cc
4F	4F	4ff	4f
4A	4A	4cc	2r
4B-	4B-	2dd	.
4BB-	4BB-	.	8dd
.	.	.	8cc
4B-	4B-	4r	4b-
=39	=39	=39	=39
4A	4A	4r	4cc
4F	4F	4ff	4f
4A	4A	4cc	2r
4B-	4B-	4dd	.
4r	4r	2r	8ee-
.	.	.	8dd
4c	4c	.	4cc
=40	=40	=40	=40
4B	4B	4r	4dd
4G	4G	4gg	4g
4B	4B	4dd	2r
4c	4c	2ee-	.
4C	4C	.	8ee-
.	.	.	8dd
4c	4c	4r	4cc
=41	=41	=41	=41
4B	4B	4r	4dd
4G	4G	4gg	4g
4B	4B	4dd	2r
4c	4c	4ee-	.
4A-	4A-	4cc	4ff
4F	4F	4ff	4aa-
=42	=42	=42	=42
2G	2G	2ff	2b
2F	2F	2ee-	2cc
4G	4G	2dd	4.cc
4GG	4GG	.	.
.	.	.	8b
=43	=43	=43	=43
2C	2C	4cc	2cc
.	.	8ee-	.
.	.	8dd	.
4c	4c	4cc	2r
4B	4B	4dd	.
4G	4G	4g	4gg
4B	4B	4r	4dd
=44	=44	=44	=44
4c	4c	4r	2ee-
4C	4C	8ee-	.
.	.	8dd	.
4c	4c	4cc	2r
4B	4B	4dd	.
4G	4G	4g	4gg
4B	4B	4r	4dd
=45	=45	=45	=45
4c	4c	4r	4ee-
4r	4r	8dd	2.r
.	.	8cc	.
4B-	4B-	4b-	.
4A	4A	4cc	.
4F	4F	4f	4ff
4A	4A	4r	4cc
=46	=46	=46	=46
4B-	4B-	4r	2dd
4BB-	4BB-	8dd	.
.	.	8cc	.
4B-	4B-	4b-	2r
4A	4A	4cc	.
4F	4F	4f	4ff
4A	4A	4r	4cc
=47	=47	=47	=47
4B-	4B-	4r	2dd
4BB-	4BB-	4b-	.
4D	4D	4f	2r
2.E-	2.E-	4g	.
.	.	[2ee-	4cc
.	.	.	4g
=48	=48	=48	=48
2.F	2.F	4ee-]	4a
.	.	4dd	2.ff
.	.	4a	.
2.G	2.G	4b-	.
.	.	[2gg	4ee-
.	.	.	4b-
=49	=49	=49	=49
2.A	2.A	4gg]	1cc
.	.	4ff	.
.	.	4cc	.
2B-	2B-	4dd	.
.	.	4ff	4b-
4D	4D	4bb-	4f
=50	=50	=50	=50
2E-	2E-	4r	4g
.	.	4gg	4ee-
4E-	4E-	4ccc	4g
2F	2F	4r	2a
.	.	4ff	.
4D	4D	4bb-	[4b-
=51	=51	=51	=51
4E-	4E-	4cc	4b-]
2F	2F	2cc	2a
2.B-	2.B-	2.b-	4b-
.	.	.	8dd
.	.	.	8cc
.	.	.	4b-
=52	=52	=52	=52
2.A	2.A	2.r	4cc
.	.	.	4f
.	.	.	4ff
2.G	2.G	4b-	4b-
.	.	8dd	[2bb-
.	.	8cc	.
.	.	4b-	.
=53	=53	=53	=53
2.F	2.F	4cc	4bb-]
.	.	4f	2.aa
.	.	4ff	.
4G	4G	4b-	.
4B-	4B-	2bb-	[2gg
4c	4c	.	.
=54	=54	=54	=54
4d	4d	2.aa	4gg]
4F	4F	.	2.ff
4D	4D	.	.
4E-	4E-	2.gg	.
4G	4G	.	[2ee-
4A	4A	.	.
=55	=55	=55	=55
2B- 2BB-	4BB-	2.ff	4ee-]
.	8D	.	2.dd
.	8C	.	.
4BB-	4BB-	.	.
4C	4C	2.ee-	.
4FF	4FF	.	[2cc
4F	4F	.	.
=56	=56	=56	=56
2BB-	2BB-	1dd	4cc]
.	.	.	4b-
4D	4D	.	4f
2E-	2E-	.	4g
.	.	4cc	4ee-
4E-	4E-	4ee-	4gg
=57	=57	=57	=57
2F	2F	2a	2cc
2E-	2E-	2b-	2dd
2F	2F	2a	2cc
=58	=58	=58	=58
2BB-	2BB-	2b-	4b-
.	.	.	4dd
4D	4D	2r	4f
2E-	2E-	.	4g
.	.	4cc	4ee-
4E-	4E-	4ee-	4gg
=59	=59	=59	=59
2F	2F	2a	2cc
2E-	2E-	2b-	2dd
2F	2F	2a	2cc
=60	=60	=60	=60
2.BB-	2.BB-	2.b-	2.b-
2.r	2.r	2.r	2.r
==	==	==	==
*-	*-	*-	*-
!!!RWG: This file only contains pitch and duration data.
!!!RWG: Transposing instruments are not transposed.
!!!RWG: Durations of rests and tied notes may be interpreted.
!!!RWG: Key is interpreted using the Humdrum key tool.
!!!SCA: 
!!!YOR: Chrysander Edition
!!!AGN: chamber
!!!AFT: stage1
!!!ENC: F. Bennion
!!!END: 1997/04/15
!!!AST: baroque
!!!YEC: Copyright 1994, Center for Computer Assisted Research in the Humanities
!!!YEM: Rights to all derivative electronic formats reserved.
!!!YEM: Refer to licensing agreement for further details.
!!!YEN: United States of America
!!!EED: W.B. Hewlett
!!!KEY: 3200215722
!!!EMD: Converted from MuseData to Humdrum Aug 9, 1999, by Bret Aarden using muse2kern.
!!!VTS: 1769334039
